src/client/assets/pup/icons/cascade.svg

<svg width="211" height="211" viewBox="0 0 211 211" fill="none" xmlns="http://www.w3.org/2000/svg">
<rect x="23.7452" y="105.77" width="116" height="116" transform="rotate(-45 23.7452 105.77)" fill="#00CDCD"/>
<path d="M75.9164 111.294C69.0567 111.294 63.4757 105.713 63.4757 98.8532C63.4757 96.8526 63.9612 94.8748 64.8834 93.1066C64.94 92.972 65.0055 92.8404 65.0797 92.712L72.7846 79.3661C73.4249 78.257 74.6083 77.5737 75.8887 77.5737C77.1694 77.5737 78.3528 78.2569 78.9932 79.3661L86.2224 91.8881C87.6189 93.9514 88.3563 96.3558 88.3563 98.853C88.3568 105.713 82.776 111.294 75.9164 111.294Z" fill="#CCF7F5"/>
<path d="M86.2229 91.8884L78.9933 79.3663C78.3529 78.2573 77.1697 77.574 75.8889 77.574C75.8373 77.574 75.786 77.5769 75.7347 77.5789V111.289C75.7954 111.29 75.8554 111.294 75.9163 111.294C82.7758 111.294 88.3566 105.713 88.3566 98.8531C88.3568 96.3561 87.6194 93.9517 86.2229 91.8884Z" fill="#00EBEB"/>
<path d="M123.68 116.017C112.391 116.017 103.206 106.833 103.206 95.5441C103.206 92.2334 104.014 88.9613 105.548 86.039C105.631 85.8367 105.728 85.6384 105.84 85.4456L119.299 62.1322C120.193 60.5843 121.845 59.6308 123.632 59.6308C125.419 59.6308 127.071 60.5843 127.964 62.1324L140.615 84.0459C142.929 87.4483 144.152 91.4185 144.152 95.5441C144.152 106.833 134.968 116.017 123.68 116.017Z" fill="#CCF7F5"/>
<path d="M140.615 84.0459L127.964 62.1324C127.071 60.5843 125.419 59.6308 123.632 59.6308C123.621 59.6308 123.611 59.6318 123.601 59.6318V116.015C123.628 116.015 123.654 116.017 123.68 116.017C134.969 116.017 144.153 106.833 144.153 95.5436C144.152 91.419 142.93 87.4483 140.615 84.0459Z" fill="#00EBEB"/>
<path d="M103.038 166.006C93.2371 166.006 85.2634 158.032 85.2634 148.231C85.2634 145.337 85.9746 142.476 87.3242 139.926C87.3847 139.771 87.4574 139.619 87.5423 139.472L100.124 117.679C100.716 116.654 101.81 116.023 102.994 116.023C104.178 116.023 105.271 116.654 105.863 117.679L117.715 138.208C119.742 141.171 120.812 144.633 120.812 148.231C120.813 158.032 112.839 166.006 103.038 166.006Z" fill="#00EBEB"/>
<path d="M103.038 166.006C93.2371 166.006 85.2634 158.032 85.2634 148.231C85.2634 145.337 85.9746 142.476 87.3242 139.926C87.3847 139.771 87.4574 139.619 87.5423 139.472L100.124 117.679C100.716 116.654 101.81 116.023 102.994 116.023L103.038 166.006Z" fill="#CCF7F5"/>
<g filter="url(#filter0_d_19_114)">
<g clip-path="url(#paint0_angular_19_114_clip_path)" data-figma-skip-parse="true"><g transform="matrix(0.0452548 0.0452548 -0.0452548 0.0452548 105.255 105.255)"><foreignObject x="-1250" y="-1250" width="2500" height="2500"><div xmlns="http://www.w3.org/1999/xhtml" style="background:conic-gradient(from 90deg,rgba(0, 0, 0, 1) 0deg,rgba(47, 10, 47, 1) 22.5deg,rgba(0, 0, 0, 1) 45deg,rgba(47, 10, 47, 1) 67.5deg,rgba(0, 0, 0, 1) 90deg,rgba(47, 10, 47, 1) 112.5deg,rgba(0, 0, 0, 1) 135deg,rgba(47, 10, 47, 1) 157.5deg,rgba(0, 0, 0, 1) 180deg,rgba(47, 10, 47, 1) 202.5deg,rgba(0, 0, 0, 1) 225deg,rgba(47, 10, 47, 1) 247.5deg,rgba(0, 0, 0, 1) 270deg,rgba(47, 10, 47, 1) 292.5deg,rgba(0, 0, 0, 1) 315deg,rgba(47, 10, 47, 1) 337.5deg,rgba(0, 0, 0, 1) 360deg);height:100%;width:100%;opacity:1"></div></foreignObject></g></g><path d="M37.3726 82.6274L43.0294 88.2843L88.2843 43.0294L82.6274 37.3726L76.9706 31.7157L31.7157 76.9706L37.3726 82.6274ZM127.882 37.3726L122.225 43.0294L167.48 88.2843L173.137 82.6274L178.794 76.9706L133.539 31.7157L127.882 37.3726ZM173.137 127.882L167.48 122.225L122.225 167.48L127.882 173.137L133.539 178.794L178.794 133.539L173.137 127.882ZM82.6274 173.137L88.2843 167.48L43.0294 122.225L37.3726 127.882L31.7157 133.539L76.9706 178.794L82.6274 173.137ZM127.882 173.137L122.225 167.48C112.853 176.853 97.6569 176.853 88.2843 167.48L82.6274 173.137L76.9706 178.794C92.5915 194.415 117.918 194.415 133.539 178.794L127.882 173.137ZM173.137 82.6274L167.48 88.2843C176.853 97.6569 176.853 112.853 167.48 122.225L173.137 127.882L178.794 133.539C194.415 117.918 194.415 92.5915 178.794 76.9706L173.137 82.6274ZM82.6274 37.3726L88.2843 43.0294C97.6569 33.6569 112.853 33.6569 122.225 43.0294L127.882 37.3726L133.539 31.7157C117.918 16.0948 92.5915 16.0948 76.9706 31.7157L82.6274 37.3726ZM37.3726 82.6274L31.7157 76.9706C16.0948 92.5915 16.0948 117.918 31.7157 133.539L37.3726 127.882L43.0294 122.225C33.6569 112.853 33.6569 97.6569 43.0294 88.2843L37.3726 82.6274Z" data-figma-gradient-fill="{&#34;type&#34;:&#34;GRADIENT_ANGULAR&#34;,&#34;stops&#34;:[{&#34;color&#34;:{&#34;r&#34;:0.0,&#34;g&#34;:0.0,&#34;b&#34;:0.0,&#34;a&#34;:1.0},&#34;position&#34;:0.0},{&#34;color&#34;:{&#34;r&#34;:0.18431372940540314,&#34;g&#34;:0.039215687662363052,&#34;b&#34;:0.18431372940540314,&#34;a&#34;:1.0},&#34;position&#34;:0.06250},{&#34;color&#34;:{&#34;r&#34;:0.0,&#34;g&#34;:0.0,&#34;b&#34;:0.0,&#34;a&#34;:1.0},&#34;position&#34;:0.1250},{&#34;color&#34;:{&#34;r&#34;:0.18431372940540314,&#34;g&#34;:0.039215687662363052,&#34;b&#34;:0.18431372940540314,&#34;a&#34;:1.0},&#34;position&#34;:0.18750},{&#34;color&#34;:{&#34;r&#34;:0.0,&#34;g&#34;:0.0,&#34;b&#34;:0.0,&#34;a&#34;:1.0},&#34;position&#34;:0.250},{&#34;color&#34;:{&#34;r&#34;:0.18431372940540314,&#34;g&#34;:0.039215687662363052,&#34;b&#34;:0.18431372940540314,&#34;a&#34;:1.0},&#34;position&#34;:0.31250},{&#34;color&#34;:{&#34;r&#34;:0.0,&#34;g&#34;:0.0,&#34;b&#34;:0.0,&#34;a&#34;:1.0},&#34;position&#34;:0.3750},{&#34;color&#34;:{&#34;r&#34;:0.18431372940540314,&#34;g&#34;:0.039215687662363052,&#34;b&#34;:0.18431372940540314,&#34;a&#34;:1.0},&#34;position&#34;:0.43750},{&#34;color&#34;:{&#34;r&#34;:0.0,&#34;g&#34;:0.0,&#34;b&#34;:0.0,&#34;a&#34;:1.0},&#34;position&#34;:0.50},{&#34;color&#34;:{&#34;r&#34;:0.18431372940540314,&#34;g&#34;:0.039215687662363052,&#34;b&#34;:0.18431372940540314,&#34;a&#34;:1.0},&#34;position&#34;:0.56250},{&#34;color&#34;:{&#34;r&#34;:0.0,&#34;g&#34;:0.0,&#34;b&#34;:0.0,&#34;a&#34;:1.0},&#34;position&#34;:0.6250},{&#34;color&#34;:{&#34;r&#34;:0.18431372940540314,&#34;g&#34;:0.039215687662363052,&#34;b&#34;:0.18431372940540314,&#34;a&#34;:1.0},&#34;position&#34;:0.68750},{&#34;color&#34;:{&#34;r&#34;:0.0,&#34;g&#34;:0.0,&#34;b&#34;:0.0,&#34;a&#34;:1.0},&#34;position&#34;:0.750},{&#34;color&#34;:{&#34;r&#34;:0.18431372940540314,&#34;g&#34;:0.039215687662363052,&#34;b&#34;:0.18431372940540314,&#34;a&#34;:1.0},&#34;position&#34;:0.81250},{&#34;color&#34;:{&#34;r&#34;:0.0,&#34;g&#34;:0.0,&#34;b&#34;:0.0,&#34;a&#34;:1.0},&#34;position&#34;:0.8750},{&#34;color&#34;:{&#34;r&#34;:0.18431372940540314,&#34;g&#34;:0.039215687662363052,&#34;b&#34;:0.18431372940540314,&#34;a&#34;:1.0},&#34;position&#34;:0.93750},{&#34;color&#34;:{&#34;r&#34;:0.0,&#34;g&#34;:0.0,&#34;b&#34;:0.0,&#34;a&#34;:1.0},&#34;position&#34;:1.0}],&#34;stopsVar&#34;:[{&#34;color&#34;:{&#34;r&#34;:0.0,&#34;g&#34;:0.0,&#34;b&#34;:0.0,&#34;a&#34;:1.0},&#34;position&#34;:0.0},{&#34;color&#34;:{&#34;r&#34;:0.18431372940540314,&#34;g&#34;:0.039215687662363052,&#34;b&#34;:0.18431372940540314,&#34;a&#34;:1.0},&#34;position&#34;:0.06250},{&#34;color&#34;:{&#34;r&#34;:0.0,&#34;g&#34;:0.0,&#34;b&#34;:0.0,&#34;a&#34;:1.0},&#34;position&#34;:0.1250},{&#34;color&#34;:{&#34;r&#34;:0.18431372940540314,&#34;g&#34;:0.039215687662363052,&#34;b&#34;:0.18431372940540314,&#34;a&#34;:1.0},&#34;position&#34;:0.18750},{&#34;color&#34;:{&#34;r&#34;:0.0,&#34;g&#34;:0.0,&#34;b&#34;:0.0,&#34;a&#34;:1.0},&#34;position&#34;:0.250},{&#34;color&#34;:{&#34;r&#34;:0.18431372940540314,&#34;g&#34;:0.039215687662363052,&#34;b&#34;:0.18431372940540314,&#34;a&#34;:1.0},&#34;position&#34;:0.31250},{&#34;color&#34;:{&#34;r&#34;:0.0,&#34;g&#34;:0.0,&#34;b&#34;:0.0,&#34;a&#34;:1.0},&#34;position&#34;:0.3750},{&#34;color&#34;:{&#34;r&#34;:0.18431372940540314,&#34;g&#34;:0.039215687662363052,&#34;b&#34;:0.18431372940540314,&#34;a&#34;:1.0},&#34;position&#34;:0.43750},{&#34;color&#34;:{&#34;r&#34;:0.0,&#34;g&#34;:0.0,&#34;b&#34;:0.0,&#34;a&#34;:1.0},&#34;position&#34;:0.50},{&#34;color&#34;:{&#34;r&#34;:0.18431372940540314,&#34;g&#34;:0.039215687662363052,&#34;b&#34;:0.18431372940540314,&#34;a&#34;:1.0},&#34;position&#34;:0.56250},{&#34;color&#34;:{&#34;r&#34;:0.0,&#34;g&#34;:0.0,&#34;b&#34;:0.0,&#34;a&#34;:1.0},&#34;position&#34;:0.6250},{&#34;color&#34;:{&#34;r&#34;:0.18431372940540314,&#34;g&#34;:0.039215687662363052,&#34;b&#34;:0.18431372940540314,&#34;a&#34;:1.0},&#34;position&#34;:0.68750},{&#34;color&#34;:{&#34;r&#34;:0.0,&#34;g&#34;:0.0,&#34;b&#34;:0.0,&#34;a&#34;:1.0},&#34;position&#34;:0.750},{&#34;color&#34;:{&#34;r&#34;:0.18431372940540314,&#34;g&#34;:0.039215687662363052,&#34;b&#34;:0.18431372940540314,&#34;a&#34;:1.0},&#34;position&#34;:0.81250},{&#34;color&#34;:{&#34;r&#34;:0.0,&#34;g&#34;:0.0,&#34;b&#34;:0.0,&#34;a&#34;:1.0},&#34;position&#34;:0.8750},{&#34;color&#34;:{&#34;r&#34;:0.18431372940540314,&#34;g&#34;:0.039215687662363052,&#34;b&#34;:0.18431372940540314,&#34;a&#34;:1.0},&#34;position&#34;:0.93750},{&#34;color&#34;:{&#34;r&#34;:0.0,&#34;g&#34;:0.0,&#34;b&#34;:0.0,&#34;a&#34;:1.0},&#34;position&#34;:1.0}],&#34;transform&#34;:{&#34;m00&#34;:90.509666442871094,&#34;m01&#34;:-90.509666442871094,&#34;m02&#34;:105.25482940673828,&#34;m10&#34;:90.509666442871094,&#34;m11&#34;:90.509666442871094,&#34;m12&#34;:14.745170593261719},&#34;opacity&#34;:1.0,&#34;blendMode&#34;:&#34;NORMAL&#34;,&#34;visible&#34;:true}"/>
</g>
<defs>
<filter id="filter0_d_19_114" x="0" y="1.52588e-05" width="210.51" height="210.51" filterUnits="userSpaceOnUse" color-interpolation-filters="sRGB">
<feFlood flood-opacity="0" result="BackgroundImageFix"/>
<feColorMatrix in="SourceAlpha" type="matrix" values="0 0 0 0 0 0 0 0 0 0 0 0 0 0 0 0 0 0 127 0" result="hardAlpha"/>
<feMorphology radius="4" operator="dilate" in="SourceAlpha" result="effect1_dropShadow_19_114"/>
<feOffset/>
<feGaussianBlur stdDeviation="8"/>
<feComposite in2="hardAlpha" operator="out"/>
<feColorMatrix type="matrix" values="0 0 0 0 0.0431373 0 0 0 0 0.00784314 0 0 0 0 0.0431373 0 0 0 0.5 0"/>
<feBlend mode="normal" in2="BackgroundImageFix" result="effect1_dropShadow_19_114"/>
<feBlend mode="normal" in="SourceGraphic" in2="effect1_dropShadow_19_114" result="shape"/>
</filter>
<clipPath id="paint0_angular_19_114_clip_path"><path d="M37.3726 82.6274L43.0294 88.2843L88.2843 43.0294L82.6274 37.3726L76.9706 31.7157L31.7157 76.9706L37.3726 82.6274ZM127.882 37.3726L122.225 43.0294L167.48 88.2843L173.137 82.6274L178.794 76.9706L133.539 31.7157L127.882 37.3726ZM173.137 127.882L167.48 122.225L122.225 167.48L127.882 173.137L133.539 178.794L178.794 133.539L173.137 127.882ZM82.6274 173.137L88.2843 167.48L43.0294 122.225L37.3726 127.882L31.7157 133.539L76.9706 178.794L82.6274 173.137ZM127.882 173.137L122.225 167.48C112.853 176.853 97.6569 176.853 88.2843 167.48L82.6274 173.137L76.9706 178.794C92.5915 194.415 117.918 194.415 133.539 178.794L127.882 173.137ZM173.137 82.6274L167.48 88.2843C176.853 97.6569 176.853 112.853 167.48 122.225L173.137 127.882L178.794 133.539C194.415 117.918 194.415 92.5915 178.794 76.9706L173.137 82.6274ZM82.6274 37.3726L88.2843 43.0294C97.6569 33.6569 112.853 33.6569 122.225 43.0294L127.882 37.3726L133.539 31.7157C117.918 16.0948 92.5915 16.0948 76.9706 31.7157L82.6274 37.3726ZM37.3726 82.6274L31.7157 76.9706C16.0948 92.5915 16.0948 117.918 31.7157 133.539L37.3726 127.882L43.0294 122.225C33.6569 112.853 33.6569 97.6569 43.0294 88.2843L37.3726 82.6274Z"/></clipPath></defs>
</svg>

<svg width="211" height="211" fill="none" xmlns="http://www.w3.org/2000/svg"><path fill="#00CDCD" d="m23.745 105.77 82.024-82.024 82.025 82.024-82.025 82.025z"/><path d="M75.916 111.294c-6.86 0-12.44-5.581-12.44-12.44 0-2.001.485-3.98 1.407-5.747a3.5 3.5 0 0 1 .197-.395l7.705-13.346a3.585 3.585 0 0 1 6.208 0l7.23 12.522a12.37 12.37 0 0 1 2.133 6.965c0 6.86-5.58 12.441-12.44 12.441z" fill="#CCF7F5"/><path d="m86.223 91.888-7.23-12.522a3.585 3.585 0 0 0-3.104-1.792c-.052 0-.103.003-.154.005v33.71c.06.001.12.005.181.005 6.86 0 12.44-5.581 12.44-12.44 0-2.498-.737-4.902-2.133-6.966z" fill="#00EBEB"/><path d="M123.68 116.017c-11.289 0-20.474-9.184-20.474-20.473 0-3.31.808-6.583 2.342-9.505.083-.202.18-.4.292-.593l13.459-23.314a5.004 5.004 0 0 1 8.665 0l12.651 21.914a20.352 20.352 0 0 1 3.537 11.498c0 11.289-9.184 20.473-20.472 20.473z" fill="#CCF7F5"/><path d="m140.615 84.046-12.651-21.914a5.001 5.001 0 0 0-4.332-2.501h-.031v56.384l.079.002c11.289 0 20.473-9.184 20.473-20.473a20.354 20.354 0 0 0-3.538-11.498zM103.038 166.006c-9.8 0-17.775-7.974-17.775-17.775 0-2.894.712-5.755 2.061-8.305.06-.155.133-.307.218-.454l12.582-21.793a3.314 3.314 0 0 1 5.739 0l11.852 20.529a17.668 17.668 0 0 1 3.097 10.023c.001 9.801-7.973 17.775-17.774 17.775z" fill="#00EBEB"/><path d="M103.038 166.006c-9.8 0-17.775-7.974-17.775-17.775 0-2.894.712-5.755 2.061-8.305.06-.155.133-.307.218-.454l12.582-21.793a3.314 3.314 0 0 1 2.87-1.656l.044 49.983z" fill="#CCF7F5"/><g filter="url(#a)"><g clip-path="url(#b)" data-figma-skip-parse="true"><foreignObject x="-1250" y="-1250" width="2500" height="2500" transform="rotate(45 -74.426 179.682) scale(.064)"><div xmlns="http://www.w3.org/1999/xhtml" style="background:conic-gradient(from 90deg,#000 0deg,#2f0a2f 22.5deg,#000 45deg,#2f0a2f 67.5deg,#000 90deg,#2f0a2f 112.5deg,#000 135deg,#2f0a2f 157.5deg,#000 180deg,#2f0a2f 202.5deg,#000 225deg,#2f0a2f 247.5deg,#000 270deg,#2f0a2f 292.5deg,#000 315deg,#2f0a2f 337.5deg,#000 360deg);height:100%;width:100%;opacity:1"/></foreignObject></g><path d="m37.373 82.627 5.656 5.657L88.284 43.03l-5.657-5.656-5.656-5.657L31.716 76.97l5.657 5.656zm90.509-45.254-5.657 5.656 45.255 45.255 5.657-5.657 5.657-5.656-45.255-45.255-5.657 5.657zm45.255 90.509-5.657-5.657-45.255 45.255 5.657 5.657 5.657 5.657 45.255-45.255-5.657-5.657zm-90.51 45.255 5.657-5.657-45.255-45.255-5.656 5.657-5.657 5.657 45.255 45.255 5.656-5.657zm45.255 0-5.657-5.657c-9.372 9.373-24.568 9.373-33.94 0l-5.658 5.657-5.656 5.657c15.62 15.621 40.947 15.621 56.568 0l-5.657-5.657zm45.255-90.51-5.657 5.657c9.373 9.373 9.373 24.569 0 33.941l5.657 5.657 5.657 5.657c15.621-15.621 15.621-40.947 0-56.568l-5.657 5.656zm-90.51-45.254 5.657 5.656c9.373-9.372 24.569-9.372 33.941 0l5.657-5.656 5.657-5.657c-15.621-15.621-40.947-15.621-56.568 0l5.656 5.657zM37.373 82.627l-5.657-5.656c-15.621 15.62-15.621 40.947 0 56.568l5.657-5.657 5.656-5.657c-9.372-9.372-9.372-24.568 0-33.94l-5.656-5.658z" data-figma-gradient-fill="{&quot;type&quot;:&quot;GRADIENT_ANGULAR&quot;,&quot;stops&quot;:[{&quot;color&quot;:{&quot;r&quot;:0.0,&quot;g&quot;:0.0,&quot;b&quot;:0.0,&quot;a&quot;:1.0},&quot;position&quot;:0.0},{&quot;color&quot;:{&quot;r&quot;:0.18431372940540314,&quot;g&quot;:0.039215687662363052,&quot;b&quot;:0.18431372940540314,&quot;a&quot;:1.0},&quot;position&quot;:0.06250},{&quot;color&quot;:{&quot;r&quot;:0.0,&quot;g&quot;:0.0,&quot;b&quot;:0.0,&quot;a&quot;:1.0},&quot;position&quot;:0.1250},{&quot;color&quot;:{&quot;r&quot;:0.18431372940540314,&quot;g&quot;:0.039215687662363052,&quot;b&quot;:0.18431372940540314,&quot;a&quot;:1.0},&quot;position&quot;:0.18750},{&quot;color&quot;:{&quot;r&quot;:0.0,&quot;g&quot;:0.0,&quot;b&quot;:0.0,&quot;a&quot;:1.0},&quot;position&quot;:0.250},{&quot;color&quot;:{&quot;r&quot;:0.18431372940540314,&quot;g&quot;:0.039215687662363052,&quot;b&quot;:0.18431372940540314,&quot;a&quot;:1.0},&quot;position&quot;:0.31250},{&quot;color&quot;:{&quot;r&quot;:0.0,&quot;g&quot;:0.0,&quot;b&quot;:0.0,&quot;a&quot;:1.0},&quot;position&quot;:0.3750},{&quot;color&quot;:{&quot;r&quot;:0.18431372940540314,&quot;g&quot;:0.039215687662363052,&quot;b&quot;:0.18431372940540314,&quot;a&quot;:1.0},&quot;position&quot;:0.43750},{&quot;color&quot;:{&quot;r&quot;:0.0,&quot;g&quot;:0.0,&quot;b&quot;:0.0,&quot;a&quot;:1.0},&quot;position&quot;:0.50},{&quot;color&quot;:{&quot;r&quot;:0.18431372940540314,&quot;g&quot;:0.039215687662363052,&quot;b&quot;:0.18431372940540314,&quot;a&quot;:1.0},&quot;position&quot;:0.56250},{&quot;color&quot;:{&quot;r&quot;:0.0,&quot;g&quot;:0.0,&quot;b&quot;:0.0,&quot;a&quot;:1.0},&quot;position&quot;:0.6250},{&quot;color&quot;:{&quot;r&quot;:0.18431372940540314,&quot;g&quot;:0.039215687662363052,&quot;b&quot;:0.18431372940540314,&quot;a&quot;:1.0},&quot;position&quot;:0.68750},{&quot;color&quot;:{&quot;r&quot;:0.0,&quot;g&quot;:0.0,&quot;b&quot;:0.0,&quot;a&quot;:1.0},&quot;position&quot;:0.750},{&quot;color&quot;:{&quot;r&quot;:0.18431372940540314,&quot;g&quot;:0.039215687662363052,&quot;b&quot;:0.18431372940540314,&quot;a&quot;:1.0},&quot;position&quot;:0.81250},{&quot;color&quot;:{&quot;r&quot;:0.0,&quot;g&quot;:0.0,&quot;b&quot;:0.0,&quot;a&quot;:1.0},&quot;position&quot;:0.8750},{&quot;color&quot;:{&quot;r&quot;:0.18431372940540314,&quot;g&quot;:0.039215687662363052,&quot;b&quot;:0.18431372940540314,&quot;a&quot;:1.0},&quot;position&quot;:0.93750},{&quot;color&quot;:{&quot;r&quot;:0.0,&quot;g&quot;:0.0,&quot;b&quot;:0.0,&quot;a&quot;:1.0},&quot;position&quot;:1.0}],&quot;stopsVar&quot;:[{&quot;color&quot;:{&quot;r&quot;:0.0,&quot;g&quot;:0.0,&quot;b&quot;:0.0,&quot;a&quot;:1.0},&quot;position&quot;:0.0},{&quot;color&quot;:{&quot;r&quot;:0.18431372940540314,&quot;g&quot;:0.039215687662363052,&quot;b&quot;:0.18431372940540314,&quot;a&quot;:1.0},&quot;position&quot;:0.06250},{&quot;color&quot;:{&quot;r&quot;:0.0,&quot;g&quot;:0.0,&quot;b&quot;:0.0,&quot;a&quot;:1.0},&quot;position&quot;:0.1250},{&quot;color&quot;:{&quot;r&quot;:0.18431372940540314,&quot;g&quot;:0.039215687662363052,&quot;b&quot;:0.18431372940540314,&quot;a&quot;:1.0},&quot;position&quot;:0.18750},{&quot;color&quot;:{&quot;r&quot;:0.0,&quot;g&quot;:0.0,&quot;b&quot;:0.0,&quot;a&quot;:1.0},&quot;position&quot;:0.250},{&quot;color&quot;:{&quot;r&quot;:0.18431372940540314,&quot;g&quot;:0.039215687662363052,&quot;b&quot;:0.18431372940540314,&quot;a&quot;:1.0},&quot;position&quot;:0.31250},{&quot;color&quot;:{&quot;r&quot;:0.0,&quot;g&quot;:0.0,&quot;b&quot;:0.0,&quot;a&quot;:1.0},&quot;position&quot;:0.3750},{&quot;color&quot;:{&quot;r&quot;:0.18431372940540314,&quot;g&quot;:0.039215687662363052,&quot;b&quot;:0.18431372940540314,&quot;a&quot;:1.0},&quot;position&quot;:0.43750},{&quot;color&quot;:{&quot;r&quot;:0.0,&quot;g&quot;:0.0,&quot;b&quot;:0.0,&quot;a&quot;:1.0},&quot;position&quot;:0.50},{&quot;color&quot;:{&quot;r&quot;:0.18431372940540314,&quot;g&quot;:0.039215687662363052,&quot;b&quot;:0.18431372940540314,&quot;a&quot;:1.0},&quot;position&quot;:0.56250},{&quot;color&quot;:{&quot;r&quot;:0.0,&quot;g&quot;:0.0,&quot;b&quot;:0.0,&quot;a&quot;:1.0},&quot;position&quot;:0.6250},{&quot;color&quot;:{&quot;r&quot;:0.18431372940540314,&quot;g&quot;:0.039215687662363052,&quot;b&quot;:0.18431372940540314,&quot;a&quot;:1.0},&quot;position&quot;:0.68750},{&quot;color&quot;:{&quot;r&quot;:0.0,&quot;g&quot;:0.0,&quot;b&quot;:0.0,&quot;a&quot;:1.0},&quot;position&quot;:0.750},{&quot;color&quot;:{&quot;r&quot;:0.18431372940540314,&quot;g&quot;:0.039215687662363052,&quot;b&quot;:0.18431372940540314,&quot;a&quot;:1.0},&quot;position&quot;:0.81250},{&quot;color&quot;:{&quot;r&quot;:0.0,&quot;g&quot;:0.0,&quot;b&quot;:0.0,&quot;a&quot;:1.0},&quot;position&quot;:0.8750},{&quot;color&quot;:{&quot;r&quot;:0.18431372940540314,&quot;g&quot;:0.039215687662363052,&quot;b&quot;:0.18431372940540314,&quot;a&quot;:1.0},&quot;position&quot;:0.93750},{&quot;color&quot;:{&quot;r&quot;:0.0,&quot;g&quot;:0.0,&quot;b&quot;:0.0,&quot;a&quot;:1.0},&quot;position&quot;:1.0}],&quot;transform&quot;:{&quot;m00&quot;:90.509666442871094,&quot;m01&quot;:-90.509666442871094,&quot;m02&quot;:105.25482940673828,&quot;m10&quot;:90.509666442871094,&quot;m11&quot;:90.509666442871094,&quot;m12&quot;:14.745170593261719},&quot;opacity&quot;:1.0,&quot;blendMode&quot;:&quot;NORMAL&quot;,&quot;visible&quot;:true}"/></g><defs><clipPath id="b"><path d="m37.373 82.627 5.656 5.657L88.284 43.03l-5.657-5.656-5.656-5.657L31.716 76.97l5.657 5.656zm90.509-45.254-5.657 5.656 45.255 45.255 5.657-5.657 5.657-5.656-45.255-45.255-5.657 5.657zm45.255 90.509-5.657-5.657-45.255 45.255 5.657 5.657 5.657 5.657 45.255-45.255-5.657-5.657zm-90.51 45.255 5.657-5.657-45.255-45.255-5.656 5.657-5.657 5.657 45.255 45.255 5.656-5.657zm45.255 0-5.657-5.657c-9.372 9.373-24.568 9.373-33.94 0l-5.658 5.657-5.656 5.657c15.62 15.621 40.947 15.621 56.568 0l-5.657-5.657zm45.255-90.51-5.657 5.657c9.373 9.373 9.373 24.569 0 33.941l5.657 5.657 5.657 5.657c15.621-15.621 15.621-40.947 0-56.568l-5.657 5.656zm-90.51-45.254 5.657 5.656c9.373-9.372 24.569-9.372 33.941 0l5.657-5.656 5.657-5.657c-15.621-15.621-40.947-15.621-56.568 0l5.656 5.657zM37.373 82.627l-5.657-5.656c-15.621 15.62-15.621 40.947 0 56.568l5.657-5.657 5.656-5.657c-9.372-9.372-9.372-24.568 0-33.94l-5.656-5.658z"/></clipPath><filter id="a" x="0" y="0" width="210.51" height="210.51" filterUnits="userSpaceOnUse" color-interpolation-filters="sRGB"><feFlood flood-opacity="0" result="BackgroundImageFix"/><feColorMatrix in="SourceAlpha" values="0 0 0 0 0 0 0 0 0 0 0 0 0 0 0 0 0 0 127 0" result="hardAlpha"/><feMorphology radius="4" operator="dilate" in="SourceAlpha" result="effect1_dropShadow_19_114"/><feOffset/><feGaussianBlur stdDeviation="8"/><feComposite in2="hardAlpha" operator="out"/><feColorMatrix values="0 0 0 0 0.0431373 0 0 0 0 0.00784314 0 0 0 0 0.0431373 0 0 0 0.5 0"/><feBlend in2="BackgroundImageFix" result="effect1_dropShadow_19_114"/><feBlend in="SourceGraphic" in2="effect1_dropShadow_19_114" result="shape"/></filter></defs></svg>
